hero/solid/computer-desktop.svg

<svg width="24" height="24" viewBox="0 0 24 24" fill="none" xmlns="http://www.w3.org/2000/svg">
<path fill-rule="evenodd" clip-rule="evenodd" d="M2.25 5.25C2.25 3.59315 3.59315 2.25 5.25 2.25H18.75C20.4069 2.25 21.75 3.59315 21.75 5.25V15C21.75 16.6569 20.4069 18 18.75 18H15.75V18.2574C15.75 18.8541 15.9871 19.4264 16.409 19.8483L17.0303 20.4697C17.2448 20.6842 17.309 21.0068 17.1929 21.287C17.0768 21.5673 16.8033 21.75 16.5 21.75H7.5C7.19665 21.75 6.92318 21.5673 6.80709 21.287C6.691 21.0068 6.75517 20.6842 6.96967 20.4697L7.59099 19.8484C8.01295 19.4264 8.25 18.8541 8.25 18.2574V18H5.25C3.59315 18 2.25 16.6569 2.25 15V5.25ZM3.75 5.25V12.75C3.75 13.5784 4.42157 14.25 5.25 14.25H18.75C19.5784 14.25 20.25 13.5784 20.25 12.75V5.25C20.25 4.42157 19.5784 3.75 18.75 3.75H5.25C4.42157 3.75 3.75 4.42157 3.75 5.25Z" fill="#0F172A"/>
</svg>

<svg viewBox="0 0 24 24" xmlns="http://www.w3.org/2000/svg"><path fill-rule="evenodd" d="M2.25 5.25v0c0-1.66 1.34-3 3-3h13.5v0c1.65 0 3 1.34 3 3V15v0c0 1.65-1.35 3-3 3h-3v.25c0 .59.23 1.17.65 1.59l.62.62v0c.29.29.29.76-.01 1.06 -.15.14-.34.21-.53.21h-9H7.47c-.42-.01-.75-.34-.75-.76 0-.2.07-.39.21-.53l.62-.63 0 0c.42-.43.65-1 .65-1.59v-.26h-3v0c-1.66 0-3-1.35-3-3V5.21Zm1.5 0v7.5 0c0 .82.67 1.5 1.5 1.5h13.5v0c.82 0 1.5-.68 1.5-1.5v-7.5 0c0-.83-.68-1.5-1.5-1.5H5.25v0c-.83 0-1.5.67-1.5 1.5Z"/></svg>
